public/assets/icons/status_shutdown.svg

<?xml version="1.0" standalone="no"?>
<!DOCTYPE svg PUBLIC "-//W3C//DTD SVG 1.1//EN" "http://www.w3.org/Graphics/SVG/1.1/DTD/svg11.dtd" >
<svg xmlns="http://www.w3.org/2000/svg" xmlns:xlink="http://www.w3.org/1999/xlink" version="1.1" viewBox="0 -64 1024 1024" width="512" height="512">
  <g transform="matrix(1 0 0 -1 0 960)">
   <path fill="currentColor"
d="M887 619l-375 102l-375 -102v-342l375 -102l375 102v342zM478 653h68v-205h-68v205zM444 604v-80q-16 -14 -25 -33.5t-9 -42.5q0 -43 29.5 -72.5t72.5 -29.5t72.5 29.5t29.5 72.5q0 23 -9 42.5t-25 33.5v80q45 -20 74 -62t29 -94q0 -70 -50.5 -120.5t-120.5 -50.5
t-120.5 50.5t-50.5 120.5q0 52 29 94t74 62v0z" />
  </g>

</svg>

<?xml version="1.0" encoding="UTF-8" standalone="no"?>
<svg
   version="1.1"
   viewBox="0 -64 1024 1024"
   width="512"
   height="512"
   id="svg738"
   sodipodi:docname="status_shutdown.svg"
   inkscape:version="1.2.2 (732a01da63, 2022-12-09)"
   xmlns:inkscape="http://www.inkscape.org/namespaces/inkscape"
   xmlns:sodipodi="http://sodipodi.sourceforge.net/DTD/sodipodi-0.dtd"
   xmlns="http://www.w3.org/2000/svg"
   xmlns:svg="http://www.w3.org/2000/svg">
  <defs
     id="defs742" />
  <sodipodi:namedview
     id="namedview740"
     pagecolor="#ffffff"
     bordercolor="#000000"
     borderopacity="0.25"
     inkscape:showpageshadow="2"
     inkscape:pageopacity="0.0"
     inkscape:pagecheckerboard="0"
     inkscape:deskcolor="#d1d1d1"
     showgrid="false"
     inkscape:zoom="1.6191406"
     inkscape:cx="236.23643"
     inkscape:cy="256.30881"
     inkscape:window-width="1920"
     inkscape:window-height="1009"
     inkscape:window-x="-8"
     inkscape:window-y="-8"
     inkscape:window-maximized="1"
     inkscape:current-layer="svg738" />
  <g
     transform="matrix(1,0,0,-1,0,896)"
     id="g736">
    <path
       fill="currentColor"
       d="M 887,619 512,721 137,619 V 277 L 512,175 887,277 Z m -409,34 h 68 V 448 H 478 Z M 444,604 V 524 Q 428,510 419,490.5 410,471 410,448 410,405 439.5,375.5 469,346 512,346 q 43,0 72.5,29.5 29.5,29.5 29.5,72.5 0,23 -9,42.5 -9,19.5 -25,33.5 v 80 q 45,-20 74,-62 29,-42 29,-94 0,-70 -50.5,-120.5 Q 582,277 512,277 442,277 391.5,327.5 341,378 341,448 q 0,52 29,94 29,42 74,62 z"
       id="path734" />
  </g>
</svg>
